austria/municipalities/40503.svg

<?xml version="1.0" encoding="UTF-8"?>
<svg version="1.1" viewBox="0 0 500 594" xmlns="http://www.w3.org/2000/svg"><g><path d="m250 587.5c-134.45 0-243.46-109.28-243.5-244.12v-336.88h243.5z" fill="#fff"/><path d="m250 587.5c134.45 0 243.46-109.28 243.5-244.12v-336.88h-243.5z" fill="#d50b2b"/><path d="m250 26.5v561c-134.45 0-243.46-109.28-243.5-244.12v-112.88l0.25 0.26758v-14.018h36.75v40.258h30v-40.258h36.75v40.258h30v-40.258h26.67v-106.55l-26.75-22v-61.699h33.08v43.699h43.67v-43.699zm-20 104h-29.5v65.699h29.5zm-123.05 196.29h-36.75v63.699h36.75z" fill="#d50b2b" fill-rule="evenodd" style="paint-order:markers fill stroke"/><path d="m250 26.5v561c134.45 0 243.46-109.28 243.5-244.12v-112.88l-0.25 0.26758v-14.018h-36.75v40.258h-30v-40.258h-36.75v40.258h-30v-40.258h-26.67v-106.55l26.75-22v-61.699h-33.08v43.699h-43.67v-43.699zm20 104h29.5v65.699h-29.5zm123.05 196.29h36.75v63.699h-36.75z" fill="#fff" fill-rule="evenodd" style="paint-order:markers fill stroke"/><path d="m250 315.39c-48.716 0-88.211 39.596-88.225 88.449v167.13c27.356 10.669 57.107 16.533 88.225 16.533z" fill="#fff"/><path d="m250 315.39v272.11c31.118 0 60.868-5.8639 88.225-16.533v-167.13c-0.014-48.854-39.509-88.449-88.225-88.449z" fill="#d50b2b"/><path d="m232.5 317.13v39.367h17.5v12.623h-17.5v25.254h17.5v12.623h-17.5v24.168h-15.041v-24.168h-22v24.168h-12.459v-24.168h-21.225v-3.1621c9.2e-4 -3.1963 0.17346-6.3524 0.50391-9.4609h20.721v-25.254h-14.16c1.8763-4.4025 4.0992-8.622 6.6328-12.623h7.5273v-10.193c3.7535-4.3901 7.9252-8.4096 12.459-11.99v22.184h22v-34.896c4.8197-1.9191 9.8477-3.4226 15.041-4.4707zm-15.041 51.99h-22v25.254h22z" fill="#d50b2b" fill-rule="evenodd" stroke="#2b2a28" stroke-width="4" style="paint-order:markers fill stroke"/><path d="m267.5 317.13v39.367h-17.5v12.623h17.5v25.254h-17.5v12.623h17.5v24.168h15.041v-24.168h22v24.168h12.459v-24.168h21.225v-3.1621c-9.2e-4 -3.1963-0.17346-6.3524-0.50391-9.4609h-20.721v-25.254h14.16c-1.8763-4.4025-4.0992-8.622-6.6328-12.623h-7.5273v-10.193c-3.7535-4.3901-7.9252-8.4096-12.459-11.99v22.184h-22v-34.896c-4.8197-1.9191-9.8477-3.4226-15.041-4.4707zm15.041 51.99h22v25.254h-22z" fill="#fff" fill-rule="evenodd" stroke="#2b2a28" stroke-width="4" style="paint-order:markers fill stroke"/></g><g fill="none" stroke="#2b2a28"><path d="m250 315.39c-48.716 0-88.211 39.596-88.225 88.449v167.13c27.356 10.669 57.107 16.533 88.225 16.533s60.868-5.8639 88.225-16.533v-167.13c-0.01396-48.854-39.509-88.449-88.225-88.449z" stroke-width="9"/><path d="m250 6.5v581" stroke-width="6.5"/><path d="m6.5 6.5v336.88c0.038534 134.83 109.05 244.12 243.5 244.12s243.46-109.28 243.5-244.12v-336.88z" stroke-width="13"/><path d="m140.17 26.5v61.699l26.75 22v106.55h-26.67v40.258h-30v-40.258h-36.75v40.258h-30v-40.258h-36.75v14.018l-0.25-0.26758v112.88c0.03853 134.83 109.05 244.12 243.5 244.12s243.46-109.28 243.5-244.12v-112.88l-0.25 0.26758v-14.018h-36.75v40.258h-30v-40.258h-36.75v40.258h-30v-40.258h-26.67v-106.55l26.75-22v-61.699h-33.08v43.699h-43.67v-43.699h-66.16v43.699h-43.67v-43.699zm60.33 104h29.5v65.699h-29.5zm69.5 0h29.5v65.699h-29.5zm-199.8 196.29h36.75v63.699h-36.75zm322.85 0h36.75v63.699h-36.75z" stroke-width="6.5" style="paint-order:markers fill stroke"/></g></svg>

<svg viewBox="0 0 500 594" xmlns="http://www.w3.org/2000/svg"><path d="M250 587.5C115.55 587.5 6.54 478.22 6.5 343.38V6.5H250z" fill="#fff"/><path d="M250 587.5c134.45 0 243.46-109.28 243.5-244.12V6.5H250z" fill="#d50b2b"/><path d="M250 26.5v561C115.55 587.5 6.54 478.22 6.5 343.38V230.5l.25.268V216.75H43.5v40.258h30V216.75h36.75v40.258h30V216.75h26.67V110.2l-26.75-22V26.5h33.08v43.7h43.67V26.5zm-20 104h-29.5v65.699H230zM106.95 326.79H70.2v63.699h36.75z" fill="#d50b2b" fill-rule="evenodd" style="paint-order:markers fill stroke"/><path d="M250 26.5v561c134.45 0 243.46-109.28 243.5-244.12V230.5l-.25.268V216.75H456.5v40.258h-30V216.75h-36.75v40.258h-30V216.75h-26.67V110.2l26.75-22V26.5h-33.08v43.7h-43.67V26.5zm20 104h29.5v65.699H270zm123.05 196.29h36.75v63.699h-36.75z" fill="#fff" fill-rule="evenodd" style="paint-order:markers fill stroke"/><path d="M250 315.39c-48.716 0-88.211 39.596-88.225 88.449v167.13c27.356 10.669 57.107 16.533 88.225 16.533z" fill="#fff"/><path d="M250 315.39V587.5c31.118 0 60.868-5.864 88.225-16.533v-167.13c-.014-48.854-39.509-88.449-88.225-88.449z" fill="#d50b2b"/><path d="M232.5 317.13v39.367H250v12.623h-17.5v25.254H250v12.623h-17.5v24.168h-15.041v-24.168h-22v24.168H183v-24.168h-21.225v-3.162c0-3.196.173-6.352.504-9.461h20.72V369.12h-14.16a88.325 88.325 0 0 1 6.634-12.623H183v-10.193a88.84 88.84 0 0 1 12.459-11.99v22.184h22v-34.896a87.361 87.361 0 0 1 15.041-4.47zm-15.041 51.99h-22v25.254h22z" fill="#d50b2b" fill-rule="evenodd" stroke="#2b2a28" stroke-width="4" style="paint-order:markers fill stroke"/><path d="M267.5 317.13v39.367H250v12.623h17.5v25.254H250v12.623h17.5v24.168h15.041v-24.168h22v24.168H317v-24.168h21.225v-3.162c0-3.196-.173-6.352-.504-9.461h-20.72V369.12h14.16a88.325 88.325 0 0 0-6.634-12.623H317v-10.193a88.84 88.84 0 0 0-12.459-11.99v22.184h-22v-34.896a87.361 87.361 0 0 0-15.041-4.47zm15.041 51.99h22v25.254h-22z" fill="#fff" fill-rule="evenodd" stroke="#2b2a28" stroke-width="4" style="paint-order:markers fill stroke"/><g fill="none" stroke="#2b2a28"><path d="M250 315.39c-48.716 0-88.211 39.596-88.225 88.449v167.13c27.356 10.669 57.107 16.533 88.225 16.533s60.868-5.864 88.225-16.533v-167.13c-.014-48.854-39.509-88.449-88.225-88.449z" stroke-width="9"/><path d="M250 6.5v581" stroke-width="6.5"/><path d="M6.5 6.5v336.88C6.539 478.21 115.55 587.5 250 587.5s243.46-109.28 243.5-244.12V6.5z" stroke-width="13"/><path d="M140.17 26.5v61.699l26.75 22v106.55h-26.67v40.258h-30v-40.258H73.5v40.258h-30v-40.258H6.75v14.018l-.25-.268v112.88C6.539 478.21 115.55 587.5 250 587.5s243.46-109.28 243.5-244.12V230.5l-.25.268v-14.018H456.5v40.258h-30v-40.258h-36.75v40.258h-30v-40.258h-26.67v-106.55l26.75-22V26.5h-33.08v43.699h-43.67V26.5h-66.16v43.699h-43.67V26.5zm60.33 104H230v65.699h-29.5zm69.5 0h29.5v65.699H270zM70.2 326.79h36.75v63.699H70.2zm322.85 0h36.75v63.699h-36.75z" stroke-width="6.5" style="paint-order:markers fill stroke"/></g></svg>
